!!!COM: Giovanni Maria Nanino
!!!OPR: Regole di contrappunto di Gio. M. Nanino e del suo fratello minore.
!!!OTL: [Didactic example]
!!!YOR: MS ca. 1580-ca.1610.
!!!YOR: Bologna, Civico Museo Bibliografico Musicale.
!!!ONB: Reprinted (without acknowledgement) by Rocco Rodio "Regole di musica"
!!!ONB: [3rd edition].  Naples: Gio. Giocomo Carlino & Costantino Vitale, 1619.
!!!ONB: Encoded from Rodio, p. 13.
!!!ONB: Canon at the fourth below after a semibreve, with the cantus firmus below.
**kern	**kern	**kern
*CF	*conseq	*guida
*M4/4	*M4/4	*M4/4
*k[]	*k[]	*k[]
=1	=1	=1
1A	1r	2.e
.	.	4f
=2	=2	=2
1E	2.B	2g
.	.	2g
.	4c	.
=3	=3	=3
1D	2d	2.f
.	2d	.
.	.	4g
=4	=4	=4
1F	2.c	2a
.	.	2f
.	4d	.
=5	=5	=5
1E	2e	1g
.	2c	.
=6	=6	=6
1D	1d	2.f
.	.	4g
=7	=7	=7
1F	2.c	1a
.	4d	.
=8	=8	=8
1G	1e	2r
.	.	2b
=9	=9	=9
1A	2r	2cc
.	2f	2cc
=10	=10	=10
1c	2g	2cc
.	2g	2g
=11	=11	=11
1B	2g	2r
.	2d	2dd
=12	=12	=12
1A	2r	2.cc
.	2a	.
.	.	4dd
=13	=13	=13
1c	2.g	1ee
.	4a	.
=14	=14	=14
1d	1b	1r
=15	=15	=15
1G	1r	2ee
.	.	2b
=16	=16	=16
1A	2b	2cc
.	2f#	4b
.	.	4a
=17	=17	=17
1G	2g	1b
.	4f	.
.	4e	.
=18	=18	=18
1d	1f	1a
=19	=19	=19
1c	1e	1r
=20	=20	=20
1d	1r	1a
=21	=21	=21
1G	1e	1b
=22	=22	=22
1F	1f	2r
.	.	2cc
=23	=23	=23
1B-	2r	1dd
.	2g	.
=24	=24	=24
1A	1a	1r
=25	=25	=25
1D	1r	1a
=26	=26	=26
1E	1e	2g
.	.	2g
=27	=27	=27
1G	2d	2b-
.	2d	2b-
=28	=28	=28
1A	2f	1a
.	2f	.
=29	=29	=29
1c	1e	[1g
=30	=30	=30
1B	[1d	2g]
.	.	[2f
=31	=31	=31
1A	2d]	2f]
.	[2c	[2e
=32	=32	=32
1G	2c]	2e]
.	[2B	[2d
=33	=33	=33
1F	2B]	2d]
.	[2A	2c
=34	=34	=34
1E	2A]	1r
.	2G	.
=35	=35	=35
1D	1r	2a
.	.	2f#
=36	=36	=36
1E	2e	1g
.	2c	.
=37	=37	=37
[1D	[1d	[1f#
=38	=38	=38
1D]	1d]	1f#]
==	==	==
*-	*-	*-
!!!CDT: 1545///-1607/3/11
!!!OCY: Italia
!!!ODT: 1586
!!!AFR: cantus firmus canon
!!!AST: polyphony
!!!AMT: simple quadruple
!!!AIN: vox
!!!YEP: David Huron and Denis Collins
!!!YEN: Canada
!!!EEV: 1.0
!!!RDT: 1995 July 23
!!!YED: 1995 August 31
